X:1
T:Lindisfarne, 78.78.4
T:Lindisfarne, 78.78.4
T:John Bacchus Dykes, 1857
T:Public Domain Courtesy of the Cyber Hymnal™
C:John Bacchus Dykes, 1857
Z:Public Domain
Z:Courtesy of the Cyber Hymnal™
%%score ( 1 2 ) ( 3 4 )
L:1/8
Q:1/4=110
M:none
K:Bb
V:1 treble 
V:2 treble 
V:3 bass 
V:4 bass 
V:1
 [DF]2 [DF]2 [FB]2 [DF]2 | [EG]2 [EB]2 [Ec]4 | [Dd]2 [Fc]2 [DB]2 [Fd]2 | [Fc]2 G2 [CA]2 [CF]2 | %4
 [B,F]2 [EF]2 [DB]2 [DF]2 | [DB]2 [Gc]2 [^Fd]4 | [DB]2 F2 [FG]2 [Ec]2 | [Ec]2 [Dd]2 [Ce]2 [Fc]2 | %8
 [FB]4 [_Ac]2 [GB]2 | (B2 A2) [FB]4 |] %10
V:2
 x8 | x8 | x8 | x2 (=ED) x4 | x8 | x8 | x2 F2 x4 | x8 | x8 | F4 x4 |] %10
V:3
 [B,,F,]2 [B,,F,]2 [B,D]2 [B,,B,]2 | [E,B,]2 [G,B,]2 [F,A,]4 | [B,,F,]2 [F,A,]2 [G,B,]2 z A, | %3
 (G,A,) [C,B,]2 [F,A,]2 A,2 | [D,F,]2 [C,A,]2 [B,,B,]2 ([B,D][A,C]) | %5
 ([G,B,][F,A,]) [E,G,]2 [D,A,]4 | [G,B,]2 [D,B,]2 [E,B,]2 [C,B,]2 | [F,B,]2 [F,B,]2 [F,B,]2 (A,E) | %8
 [B,D]4 E4 | [F,C]4 [B,,D]4 |] %10
V:4
 x8 | x8 | x6 B,,2 | C,2 x3 (F,E,) x | x8 | x8 | x8 | x6 F,2 | x4 (_A,2 E,2) | x8 |] %10

